svgs/sharp-light/square-5.svg

<svg xmlns="http://www.w3.org/2000/svg" viewBox="0 0 448 512"><!--! Font Awesome Pro 6.6.0 by @fontawesome - https://fontawesome.com License - https://fontawesome.com/license (Commercial License) Copyright 2024 Fonticons, Inc. --><path d="M32 64l0 384 384 0 0-384L32 64zM0 32l32 0 384 0 32 0 0 32 0 384 0 32-32 0L32 480 0 480l0-32L0 64 0 32zm176 96l112 0 16 0 0 32-16 0-99.5 0L172 225.9l80.4 8.1c38.4 3.9 67.6 36.2 67.6 74.8c0 41.5-33.7 75.2-75.2 75.2l-44 0c-27.4 0-53-13.7-68.3-36.4l-1.8-2.7-8.9-13.3 26.6-17.8 8.9 13.3 1.8 2.7c9.3 13.9 25 22.3 41.8 22.3l44 0c23.8 0 43.2-19.3 43.2-43.2c0-22.2-16.8-40.7-38.8-42.9l-98.8-10L132 254.1l4.5-17.9 24-96 3-12.1 12.5 0z"/></svg>

<svg xmlns="http://www.w3.org/2000/svg" viewBox="0 0 448 512"><!--! Font Awesome Pro 6.5.2 by @fontawesome - https://fontawesome.com License - https://fontawesome.com/license (Commercial License) Copyright 2024 Fonticons, Inc. --><path d="M32 64V448H416V64H32zM0 32H32 416h32V64 448v32H416 32 0V448 64 32zm176 96H288h16v32H288 188.5L172 225.9l80.4 8.1c38.4 3.9 67.6 36.2 67.6 74.8c0 41.5-33.7 75.2-75.2 75.2h-44c-27.4 0-53-13.7-68.3-36.4l-1.8-2.7-8.9-13.3 26.6-17.8 8.9 13.3 1.8 2.7c9.3 13.9 25 22.3 41.8 22.3h44c23.8 0 43.2-19.3 43.2-43.2c0-22.2-16.8-40.7-38.8-42.9l-98.8-10L132 254.1l4.5-17.9 24-96 3-12.1H176z"/></svg>
